X:1
T:Title
%%score [ 1 2 3 4 ]
L:1/8
Q:1/4=120
M:2/2
K:C
V:1 alto1 nm="Cantus [alto]"
V:2 tenor nm="Altus [tenor]"
V:3 tenor nm="Tenor"
V:4 bass nm="Bassus"
V:1
 x8 |[M:2/2][K:treble] A6 G2 | A4 D4 | F6 E2 | F4 G4 | E8- | E4 A4- | A2 G2 A4 | D8 | z8 | z8 | %11
w: |Sal- *|* ve|vir- go|vir- gi-|num,|_ sal-||ve|||
 F6 E2 | F4 G4 | E8- | E4 A4- | A2 G2 A4 | D8 | F6 E2 | F4 G4 | E4 G3 F | E2 D4 ^C2 | D8 | z4 D4- | %23
w: lu- men|lu- mi-|num,|_ sal-||ve|lu- men|lu- mi-|num, lu- *|* * mi-|num,|va-|
 D4 D4 | z4 E4- | E4 E4 | E6 F2 | E4 D4 | C8 || z8 | z8 | z8 | A6 G2 | A4 D4- | D4 z4 | z4 A4- | %36
w: * le|va-|* le,|dul- ce|li- li-|um.||||Sal- *|* ve,|_|sal-|
 A2 G2 A4 | D6 F2- | F2 E2 F4 | G4 E4- | E8 || E8 | F4 G4 | E8 | z4 z2 D2 | G6 G2 | G4 E4 | %47
w: |ve ma-|* ter pau-|pe- rum.|_|Ma-|ter Chris-|ti,|tu|pe- pe-|ri- sti|
 F2 G2 A3 G | F2 E4 D2 | E8 | z8 | z8 | z2 D2 G4- | G2 G2 G4 | E2 C2 c4- | c2 c2 c4 | A4 z2 G2 | %57
w: re- gem om- *|* * ni-|um.|||tu pe-|* pe- ri-|sti, tu pe-|* pe- ri-|sti re-|
 FEFG AB c2- | cB A4 ^G2 | A4 z2 A2- | A2 G2 A4 | F2 E2 F2 G2 | E4 z2 A2- | A2 G2 A4 | %64
w: * * * * * * gem|_ _ om- ni-|um: gau-|* de pu-|ra spes fu- tu-|ra, gau-||
 F2 E2 F2 G2 | E4 A4- | A2 G4 FE | F8- | F4 E4- | E4 D4 | G4 E2 F2- | F2 E4 D2 | E8 | z8 | z8 | %75
w: de _ pu- *|ra spes|_ fu- * *|tu-||* ra|de- pre- can-|* * ti-|um;|||
 z8 | z8 | z2 E2 G2 G2 | A2 c3 B A2- | A2 GF E4 | D2 A3 G G2- | G2 FE D4 | C8 | z4 E4 | G8 | %85
w: ||tu _ in|ho- * * ra|_ _ _ mor-|tis no- * *||strae|o-|ra|
 A4 E4- | E4 z4 | z4 E4 | G8 | A4 E4- | E4 B4 | c3 B A4 | G3 F ED E2- | E2 D2 E4- | E4 z4 | z8 | %96
w: Chri- stum,|_|o-|ra|Chri- *|* stum|Do- * *||* mi- num,|_||
 z2 A4 G2 | F2 E2 F2 G2 | E4 D4 | A4 G2 F2 | E4 A4 | G2 F2 E2 G2 | A3 G/F/ E2 F2- | FE D4 ^C2 | %104
w: ne dam-|ne- mur in ae-|ter- num,|in _ ae-|ter- num,|ne da- mne- mur|in _ _ ae- ter-||
 D8 | z2 A4 F2- | F2 D2 G4 | F8 | z2 A4 F2- | F2 D2 G4 |[M:3/4] F4 z2 | E3 F G2 | A4 G2 | F2 E4 | %114
w: num.|Spe- *|* ci- o-|sa|pre- *|* ti- o-|sa|lux _ er-|ran- *|* ti-|
 D2 A3 G |[M:3/2] F2 D2 E4 F4 |[M:2/2] E8 | z2 E4 C2 | F4 E4 | z2 E4 C2 | F4 E4 | E4 C2 F2- | %122
w: um, lux _|er- * ran- ti-|um,|ge- ne-|ro- sa,|gra- ti-|o- sa,|gra- ti- o-|
 FE D4 ^C2 |[M:3/4] D2 z2 D2 | A2 A2 G2 | F2 A4 | G2 F2 F2 | E4 z2 | z6 | z6 | z4 D2 | A2 A2 G2 | %132
w: |sa sis|in hac val-|le te|lau- dan- ti-|um,|||sis|in hac val-|
 F2 A4 | G2 F3 E | D3 ^C/B,/ C2 |[M:2/2] D8- | D8 | z4 D4- | D4 E4 | G4 F2 D2 | F2 G2 A3 G/F/ | %141
w: le te|lau- dan- *|* * * ti-|um,|_|Con-|* so-|la- trix et|gau- * * * *|
 E4 D3 E | FG A4 GF | E8 | z2 A4 G2 | F4 E4 | D3 C/B,/ A,2 F2- | FE D4 C2 | D4 D2 F2- | %149
w: |* * * di- *|um,|con- so-|la- trix|et- _ _ _ gau-|* * * di-|um, et gau-|
 FG A3 B c2- | cB A4 ^G2 | A8- | A4 z4 | z2 A4 F2 | G2 A4 D2 | F2 G2 E4 | D4 z4 | z2 F4 E2- | %158
w: |* * * di-|um,|_|a- pud|Pa- trem et|Fi- * li-|um,|et _|
 ED D4 ^C2 | D4 z4 | D4 A4- | A4 G4 | F4 E4 | z2 c3 B B2- | BA A4 GF | G4 A4- | A8 | z4 D4 | A8 | %169
w: _ _ Fi- li-|um,|o ma-|* ter|De- i,|o _ ma-|* * ter _ _|De- i,|_|o|ma-|
 G4 F4 | E8 | z2 E4 D2 | E8 |[M:1/2] E4 |[M:2/2] C8 | E4 F4- | F2 E2 D4 | C8 | D8 |] %179
w: ter De-|i,|ma- ter|De-|i,|me-|men- to|_ me- i,|A-|men.|
V:2
 x8 |[M:2/2][K:treble-8] z8 | z8 | d6 c2 | d4 G4 | c6 B2 | c4 d4 | A8- | A4 z4 | e6 d2 | e4 A4 | %11
w: |||Sal- *|* ve|vir- go|vir- gi-|num,|_|sal- *|* ve,|
 d6 c2 | d4 G4 | c6 B2 | c4 d4 | A8- | A4 B4 | A4 d4- | d2 c2 d4 | G4 c2 d2 | c2 B2 A4 | A8 | %22
w: sal- *|* ve|lu- *|* men|lu-|* mi-|num, sal-||ve lu- men|lu- * mi-|num,|
 z4 B4- | B4 B4 | z4 c4- | c4 c4 | c6 c2 | c4 A4 | A8 || z8 | z4 A4- | A2 G2 A4 | D4 F4- | %33
w: va-|* le|va-|* le,|dul- ce|li- li-|um.||Sal-||ve am-|
 F2 E2 F4 | D4 E2 e2- | e2 d2 c2 BA | d4 c2 A2- | A2 G2 A2 D2 | A3 G A4 | B4 c4- | c8 || A8 | %42
w: * ter pau-|pe- rum, pau-|* * * pe- *|rum, _ ma-|* * * ter|pau- * *|pe- rum.|_|Ma-|
 d4 B4 | c8 | z8 | z2 G2 c4- | c2 c2 c2 A2- | A2 B2 c2 d2- | dc c4 B2 | c8 | z8 | z4 z2 C2 | %52
w: ter Chris-|ti,||tu pe-|* pe- ri- sti|_ _ re- gem|_ _ om- ni-|um.||tu|
 G6 G2 | G4 E4- | E4 C2 c2- | c2 c2 c2 A2 | c2 d2 e2 e2 | A4 z2 e2- | e2 d2 e4 | c2 A2 c2 d2 | %60
w: pe- pe-|ri- sti,-|_ tu pe-|* pe- ri- sti|re- gem om- ni-|um: gau-|* de pu-|ra spes fu- tu-|
 B4 z4 | z2 A4 G2 | A4 F2 ED | E4 z2 d2- | d2 c2 d4 | c2 A2 c2 d2- | dcBA G4 | A8- | A4 G4 | %69
w: ra|gau- *|de pu- * *|ra, gau-|* de pu-|ra spes fu- tu-|||* ra|
 z2 A4 d2- | d2 B4 c2- | c2 c2 A4- | A2 c4 BA | G4 z4 | z8 | z2 A2 c2 c2 | d2 f3 e e2- | e2 dc B4 | %78
w: de- *||* pre- can-|* * ti- *|um;||tu _ in|ho- ra _ mor-|* * * tis,|
 z2 A2 c2 c2 | d2 A4 G2 | F2 ED F2 G2- | G2 C2 D4 | E8 | A4 A2 c2- | c2 BA B4 | A4 z4 | z8 | %87
w: tu _ in|ho- * ra|mor- * * * *|* tis no-|strae,|o- ra Chri-||stum,||
 A4 A2 c2- | c2 BA B4 | A4 c4- | c4 d4 | c2 A2 c4- | c2 BA G4 | z2 d4 c2 | B4 A4- | A4 z2 d2- | %96
w: o- ra Chri-||stum do-|||* mi- * num,|ne dam-|ne- mur,|_ ne|
 d2 c2 B4 | A2 c2 d2 B2 | A4 z4 | z8 | G4 F2 E2- | E2 D2 z2 d2- | d2 c4 B2 | A2 B2 A2 A2 | F4 A4 | %105
w: _ dam- ne-|mur in ae- ter-|num,||ne da- mne-|* mur ne|_ da- mne-|mur in ae- ter-|num. Spe-|
 F4 D2 d2- | dcBA G4 | A4 D4 | A4 F4 | D2 d4 ^c2 |[M:3/4] d4 AB | cd e3 d | c3 B/A/ B2 | c4 z2 | %114
w: * ci- o-||* sa|pre- *|ti- o- *|sa, lux _|er- * ran- *|* * * ti-|um,|
 A3 B c2 |[M:3/2] d4 c2 c3 B/A/ B2 |[M:2/2] c8- | c4 c4 | A2 B2 c4- | c4 c4 | A2 B2 c4- | c2 A6 | %122
w: lux _ _|_ er- ran- * * ti-|um,|_ ge-|ne- ro- sa|_ gra-|* ti- o-|* sa|
 F2 G2 A4 |[M:3/4] A6 | z4 G2 | d2 d2 c2 | B2 d4 | c2 B2 B2 | A6 | z6 | G2 d2 d2 | c4 B2 | d4 c2- | %133
w: _ _ _||sis|in hac val-|le te|lau- dan- ti-|um||sis in hac|val- le|te- _|
 c2 A4 | B2 A4 |[M:2/2] A8 | z4 A4- | A4 B4 | d4 c2 A2 | B2 c2 d4- | d2 cB A2 d2- | d2 c2 B4 | %142
w: _ lau-|dan- ti-|um.|Con-|* so-|la- trix et|gau- * *|||
 A6 d2- | d2 cB c4- | c4 d4 | D4 E4 | G4 F2 D2 | F2 G2 A2 A2 | B4 d4- | d2 c4 A2 | e2 f2 e4 | c8 | %152
w: |* * * di-|* um,|con- so-|la- trix et|gau- di- um, con-|so- la-|* trix et|gau- * di-|um|
 z8 | z4 d4 | B2 c2 d4 | A2 c3 BAG | F2 F2 D2 E2 | FD d4 B2 | c2 A2 A4- | A4 D4 | A6 B2 | %161
w: |a-|pud Pa- trem|et Fi- * * *|* li- um, et|Fi- * * *|* li- um,|_ o|ma- *|
 c2 d4 c2 | d4 c4 | A4 d4- | d4 c4 | B4 A4- | A4 z2 f2- | fe e3 d d2- | d2 cB c3 d | B3 c d4 | %170
w: * * ter|De- i,|o ma-|* ter|De- i,|_ o|_ _ ma- * ter|_ _ _ De- *|* * in|
 c3 B/A/ A3 G/F/ | E4 A4 | B8 |[M:1/2] c4 |[M:2/2] A8 | B4 c4 | F6 G2 | A8 | A8 |] %179
w: ma- * * ter _ _|De- *||i,|me-|men- to|me- i,|A-|men.|
V:3
 x8 |[M:2/2][K:treble-8] z8 | z8 | z8 | z8 | A6 G2 | A4 D4 | F6 E2 | F4 G4 | E3 F G4- | %10
w: |||||Sal- *|* ve|vir- *|* go|vir- * *|
 G2 FE F2 D2 | A8 | z8 | A6 G2 | A4 D4 | F6 E2 | F4 G4 | F2 D2 A3 G | F3 E D2 G2- | G2 E4 G2- | %20
w: * * * * gi-|num,||sal- *|* ve|lu- men|lu- mi-|num, _ lu- *||* men lu-|
 G2 F2 E4 | ^F8 | z4 G4- | G4 G4 | z4 G4- | G4 G4 | A6 A2 | G4 F4 | E8 || A6 G2 | A4 D2 F2- | %31
w: * * mi-|num,|va-|* le|va-|* le,|du- lce|li- li-|um.|Sal- *|* ve ma-|
 F2 E2 F3 G | A4 z4 | A8 | G8- | G4 A4 | D2 D2 E2 F2- | F2 DE FG A2 | F2 c3 B A2- | A2 G2 A4- | %40
w: * ter pau- pe-|rum,|sal-|||ve ma- * *||ter pau- * *|* pe- rum.|
 A8 || z8 | z8 | E8 | F4 G4 | E8 | z8 | z8 | z2 C2 G4- | G2 G2 G4 | E4 F2 G2 | A3 G F2 E2 | D4 z4 | %53
w: _|||Ma-|ter Chris-|ti,|||tu pe-|* pe- ri-|sti re- gem|om- * * ni-|um,|
 z2 G2 c4- | c2 c2 c4 | A8 | z2 A2 B2 c2 | d6 G2 | A4 B4 | A8 | z4 z2 d2- | d2 c2 d4 | %62
w: tu pe-|* pe- ri-|sti|re- * *|* gem|om- ni-|um:|gau-|* * de|
 c2 A2 c2 d2 | B4 A2 D2 | A4 z4 | z8 | z2 d4 ^c2 | d4 c2 A2 | c2 d2 B4 | A4 z2 D2- | D2 G4 A2- | %71
w: pu- * * ra|spes fu- tu-|ra,||gau- de|pu- ra spes|fu- * tu-|ra de-|* pre- can-|
 A2 G2 F4 | E8 | z2 E2 G2 G2 | A2 c3 B A2- | A2 GF G4 | A8 | E8 | z8 | z8 | z8 | z2 E2 G2 G2 | %82
w: * * ti-|um;|tu _ in|ho- * * *|* * * ra|mor-|tis,||||tu _ in|
 A2 c3 B A2- | A2 GF E4- | E8 | z4 E4 | G8 | A4 E4- | E8 | z4 E4 | G8 | A4 E4 | E2 G4 FE | %93
w: ho- ra _ mor-|* * * tis|_|o-|ra|Chri- stum,|_|o-|ra|Chri- stum|Do- * mi- *|
 F4 E2 A2- | A2 G2 F4 | E4 G4 | A2 A2 E4 | z4 z2 d2- | d2 c2 B4 | A2 c4 d2 | B4 A4 | z4 G4 | %102
w: num, _ ne|_ da- mne-|mur in|ae- ter- num,|ne|da- mne- mur|in ae- ter-|num,- _|ne|
 F2 E4 D2 | F2 G2 E4 | D8 | A4 F4 | D2 d4 ^c2 | d4 A4 | F4 D2 d2- | dcBA G4 |[M:3/4] A6- | A4 z2 | %112
w: da- mne- mur|in ae- ter-|num.|Spe- *|ci- o- *|sa ^re-|* ti- o-||sa|_|
 E3 F G2 | A4 G2 | F4 E2 |[M:3/2] D2 A4 G3 F/E/ F2 |[M:2/2] G4 z2 G2- | G2 E2 A4- | A2 GF G2 G2- | %119
w: lux _ _|_ er-|ran- ti-|um, er- ran- * * ti-|um, ge-|* ne- ro-|* * * sa gra-|
 G2 E2 A4- | A2 GF G2 E2- | E2 C2 F4 | D4 E4 |[M:3/4] D2 F4 | E4 z2 | z6 | z4 D2 | A2 A2 G2 | %128
w: * ti- o-|* * * sa, gra-|* ti- o-|||sa||sis|in hac val-|
 F2 A4 | G2 F2 F2 | E3 D/C/ D2 | E4 E2 | F4 E2- | E2 F4 | G2 E4 |[M:2/2] F2 D3 E F2 | D2 F4 ED | %137
w: le te|lau- dan- ti-|um, _ _ _|te lau-|dan- *||ti- um,|te lau- * *|dan- * * *|
 E2 F2 G4 | F2 ED A4 | z8 | D8 | E4 G4 | F2 D2 F2 G2 | A6 GF | E4 D4 | A8 | z4 D4- | D4 E4 | %148
w: |* ti- * um.||Con-|so- la-|trix et gau- *||* di-|um,|con-|* so-|
 G4 F2 D2 | F3 G A3 B | c2 d2 B4 | A4 z2 A2- | A2 F2 G2 A2- | AGFE D4 | z8 | z4 z2 A2- | %156
w: la- trix et|gau- * * *|* * di-|um a-|* pud Pa- *|* * * * trem,||a-|
 A2 F2 G2 A2- | A2 D2 F2 G2- | GFED E4 | D8- | D8 | z8 | D4 A4- | A4 G4 | F4 E4- | E8 | D4 A4- | %167
w: * pud Pa- trem|_ et Fi- *|* * * * li-|um,|_||o ma-|* ter|De- i,|_|o ma-|
 A4 G4 | F4 E4- | E4 z4 | z4 z2 c2- | cB B3 A A2- | A2 ^G^F G4 |[M:1/2] A4 |[M:2/2] E8 | G4 A4 | %176
w: * ter|De- i,|_|o|_ _ ma- * ter|_ _ _ De-|i,|me-|men- to|
 D4 D4 | E8 | D8 |] %179
w: me- i,|A-|men.|
V:4
 x8 |[M:2/2] z8 | z8 | z8 | z8 | z8 | z8 | D,6 C,2 | D,4 G,,4 | C,6 B,,2 | C,4 D,4- | D,4 A,,4 | %12
w: |||||||Sal- *|* ve|vir- go|vir- gi-|* num,|
 z8 | z8 | z8 | D,6 C,2 | D,4 G,,4 | D,6 C,2 | D,4 G,,4 | C,6 B,,2 | C,2 D,2 A,,4 | D,8 | %22
w: |||sal- *|* ve,|sal- *|* ve,|lu- men|lu- * mi-|num,|
 z4 G,,4- | G,,4 G,,4 | z4 C,4- | C,4 C,4 | A,,6 F,,2 | C,4 D,4 | A,,8 || z8 | z8 | z8 | z4 D,4- | %33
w: va-|* le|va-|* le,|dul- ce|li- li-|um.||||Sal-|
 D,2 C,2 D,4 | G,,4 C,4- | C,2 B,,2 C,2 D,2 | B,,4 A,,2 D,2- | D,2 G,,2 D,4- | D,2 C,2 F,4 | %39
w: |ve ma-|* ter pau- pe-|rum, _ sal-|* ve ma-|* ter pau-|
 E,4 A,,4- | A,,8 || z8 | z8 | A,,8 | D,4 B,,4 | C,8 | z8 | z8 | z4 z2 G,,2 | C,6 C,2 | %50
w: pe- rum.|_|||Ma-|ter Chris-|ti,|||tu|pe- pe-|
 C,2 A,,4 B,,2 | C,2 D,3 C, C,2- | C,2 B,,2 C,2 G,,2 | C,6 C,2 | C,4 A,,2 F,,2 | F,6 F,2 | %56
w: ri- sti _|re- gem _ om-|* ni- um, tu|pe- pe-|ri- sti, tu|pe- pe-|
 F,4 E,4 | D,6 C,2 | F,4 E,4 | A,,2 F,4 E,D, | E,4 D,3 C, | A,,4 z4 | z8 | z8 | z2 A,4 G,2 | %65
w: ri- sti|re- *||gem om- * *|* * ni-|um:|||gau- *|
 A,4 F,2 D,2 | F,2 G,2 E,4 | D,4 F,4- | F,2 D,2 E,4- | A,,4 D,4 | G,,6 F,,2- | F,,2 C,2 D,4 | %72
w: * * de|pu- * ra|spes fu-|* * tu-|ra de-|pre- can-|* * ti-|
 A,,4 z2 A,,2 | C,2 C,2 B,,2 B,,2 | A,,4 z2 D,2 | F,2 F,2 E,2 E,2 | D,3 C, A,,4- | A,,4 z4 | z8 | %79
w: um; tu|in ho- ra mor-|tis, tu|_ in ho- ra|mor- * tis,|_||
 z2 A,,2 C,2 C,2 | D,2 F,3 E, E,2- | E,2 D,C, B,,4 | A,,8- | A,,8 | z8 | A,,4 A,,2 C,2- | %86
w: tu- _ in|ho- * * ra|_ _ _ mor-|tis|_||o- ra Chri-|
 C,2 B,,A,, B,,4 | A,,8 | z8 | A,,4 A,,2 C,2- | C,2 B,,A,, B,,4 | A,,8 | C,8 | D,4 A,,4 | %94
w: |stum,||o- ra Chri-||stum|Do-|mi- num,|
 z4 z2 D,2- | D,2 C,2 B,,4 | A,,4 z4 | z8 | z2 A,4 G,2 | F,4 E,2 D,2 | E,2 E,2 A,,4 | %101
w: ne|_ dam- ne-|mur,||ne da-|mne- mur in|ae- ter- num,|
 z2 D,2 C,2 B,,2 | A,,4 C,2 D,2- | D,2 G,,2 A,,4 | D,4 z2 A,2- | A,2 F,4 D,2 | F,2 G,2 E,4 | %107
w: ne _ da-|mne- mur in|_ ae- ter-|num. Spe-|* * ci-|o- * *|
 D,4 z2 A,2- | A,2 F,4 D,2 | F,2 G,2 E,4 |[M:3/4] D,6 | A,,B,, C,D, E,2 | A,,4 z2 | A,,3 B,, C,2 | %114
w: sa pre-|* * ti-|o- * *|||sa|lux _ _|
 D,4 A,,2 |[M:3/2] D,4 A,,2 C,2 D,4 |[M:2/2] C,8 | C,6 A,,2 | D,4 C,4 | C,6 A,,2 | D,4 C,4 | %121
w: _ er-|ran- * * ti-|um,|ge- ne-|ro- sa|gra- ti-|o- sa,|
 A,,6 F,,2 | _B,,4 A,,4 |[M:3/4] D,6 | A,,4 z2 | z6 | z6 | z4 G,,2 | D,2 D,2 C,2 | B,,2 D,4 | %130
w: gra- ti-|o- *||sa|||sis|in hac val-|le te|
 C,2 B,,2 B,,2 | A,,4 z2 | D,4 A,,2 | C,2 D,4 | G,,2 A,,4 |[M:2/2] D,3 E, F,2 D,2 | F,2 D,4 C,B,, | %137
w: lau- dan- ti-|um,|te lau-|dan- *|ti- um,|te _ _ lau-|dan- * * *|
 A,,4 G,,4 | D,4 A,,4 | z8 | z8 | z8 | z8 | z4 A,,4- | A,,4 B,,4 | D,4 C,2 A,,2 | B,,2 C,2 D,4- | %147
w: |ti- um.|||||Con-|* so-|la- trix et|lau- * *|
 D,2 C,B,, A,,4 | G,,4 z2 D,2- | D,2 F,3 G, A,2- | A,2 D,2 E,4 | A,,8 | D,4 B,,2 C,2 | D,4 z4 | %154
w: * * * di-|um, et|_ gau- * *|* * di-|um|a- pud Pa-|trem,|
 z8 | z8 | D,4 B,,2 C,2 | D,6 G,,2 | C,2 D,2 A,,4 | z2 D,2 A,4- | A,2 G,2 F,4- | F,4 E,4 | %162
w: ||a- pud Pa-|trem et|Fi- li- um,|o ma-||* ter|
 D,3 C, A,,4- | A,,4 z4 | z4 z4 | z4 A,,4 | D,8 | C,4 B,,4 | A,,8 | z4 D,4 | A,8 | G,4 F,4 | E,8 | %173
w: De- * i,|_||o|ma-|ter De-|i,|o|ma-|* ter|De-|
[M:1/2] A,,4 |[M:2/2] A,,8 | G,,4 F,,4 | _B,,4 B,,4 | A,,8 | D,8 |] %179
w: i,|me-|men- to|me- i,|A-|men.|

